icon-themes/sifr_svg/cmd/sc_charmapcontrol.svg

<svg viewBox="0 0 16 16" xmlns="http://www.w3.org/2000/svg"><path d="m8 1c-3.8659932 0-7 2.4624339-7 5.5.00602 2.1199604 1.5622077 4.04848 4 4.957031v1.542969h-4v2h6v-5.0722656c-2.3271401-.3325177-3.9989473-1.7651454-4-3.4277344 0-1.9329966 2.2385763-3.5 5-3.5 2.761424 0 5 1.5670034 5 3.5-.0024 1.6618551-1.673886 3.0934109-4 3.4257812v5.0742188h6v-2h-4v-1.537109h.002c2.439366-.909903 3.995213-2.8411627 3.998-4.962891 0-3.0375661-3.134007-5.5-7-5.5z" fill="#555753"/></svg>

<svg xmlns="http://www.w3.org/2000/svg" viewBox="0 0 16 16">
  <path
     style="fill:#555753"
     d="M 8,1 C 4.1340068,1 1,3.4624339 1,6.5 1.00602,8.6199604 2.5622077,10.54848 5,11.457031 V 13 H 1 v 2 H 7 V 9.9277344 C 4.6728599,9.5952167 3.0010527,8.162589 3,6.5 3,4.5670034 5.2385763,3 8,3 10.761424,3 13,4.5670034 13,6.5 12.9976,8.1618551 11.326114,9.5934109 9,9.9257812 V 15 h 6 v -2 h -4 v -1.537109 h 0.002 C 13.441366,10.552988 14.997213,8.6217283 15,6.5 15,3.4624339 11.865993,1 8,1 Z"
     />
</svg>
